X:1
T:Title
%%score { ( 1 3 ) | ( 2 4 ) }
L:1/8
M:4/4
K:F
V:1 treble nm="Grand Piano"
V:3 treble 
V:2 treble 
V:4 treble 
V:1
 z8[Q:1/4=100] | [FAc]2 [FAc]2 [FAd]2 [Ad]2 | [FA]6 z2 | [FAc]2 [Ac]2 [FAd]2 [Ad]2 | %4
[M:11/16] [GB]/-[GB]/-[GB]/-[GB]/-[GB]/-[GB]/-[GB]/-[GB]-<[GB] |[M:5/16] z5/2 | %6
[M:4/4] [GBd]2 [GBd]2 [GBe]2 [GBe]2 | [FAc]2- (3[FAc]3/2 z/ C c>c c>d | %8
 [A^ce]2 [Ac]2 [_A=B]2 [Ae]2 | [E^ce]4- [CEBce]2 z2 |[M:6/8] [Af][Ae][Ad] [Ac]2 [A=B] | %11
 [Ad]3 [CAc]2 A | G3 F2 A | G3 .F3 | [Af][Ae][Ad] [Ac]2 [A=B] | [Ad]3 [Ac]2 A | G3 d3 | [Ec]6 | %18
 [Af][Ae][Ad] [Ac]2 [A=B] | [Ad]3 [CAc]2 A | G3 F2 A | G3 F3 | ddd eee | [Af]3 z3 | A3 [EG]3 | %25
[M:7/16] F/-F/-F/-F-<F |] %26
V:2
 z4 z z/ C/ F>A | (3F,,C,F, (3A,F,A,[K:treble] D2 F2 | (3F,,C,F, (3A,F,[K:treble]D C>C F>A | %3
 (3F,,C,F, (3A,F,A,[K:treble] D2 F2 |[M:11/16][K:bass] G,,/D,G,/B,/G,[K:treble]E<D | %5
[M:5/16] D<GB/ |[M:4/4][K:bass] (3G,,D,G, (3B,G,B, C2 C,2 | z2 z[K:treble] F z4 | %8
 (3E,A,^C (3ECA, (3E,=B,D (3EDB, | (3A,,E,A, (3^CA,E, C,2 z2 | %10
[M:6/8] [F,C][F,C][F,C] [C,C]2 [C,C] | [F,C]3 C,2 C | B,3 A,2 C | B,3 .A,3 | %14
 [F,C][F,C][F,C] [C,C]2 [C,C] | [F,C]3 [C,C]2[K:treble] [F,CF] | [G,CE]3 [G,=B,F]3 | %17
 [C,C]DC B,A,G, | [F,C][F,C][F,C] [C,C]2 [C,C] | [F,C]3 C,2 C | B,3 A,2 C | B,3 A,3 | %22
 [B,F][B,F][B,F] [A,^CA][A,CA][A,CA] | z3[K:treble] .B3 | [CF]3[K:bass] [C,B,]3 | %25
[M:7/16] [F,A,]/-[F,A,]/-[F,A,]/-[F,A,]-<[F,A,] |] %26
V:3
 x8 | x8 | x8 | x8 |[M:11/16] D/-D/-D/-D/-D-<D z/ z |[M:5/16] x5/2 |[M:4/4] x8 | z2 z A z4 | x8 | %9
 A4 z4 |[M:6/8] x6 | x6 | x6 | x6 | x6 | x6 | x6 | x6 | x6 | x6 | x6 | x6 | x6 | z DD fdB | x6 | %25
[M:7/16] x7/2 |] %26
V:4
 x8 | x4[K:treble] x4 | x10/3[K:treble] x14/3 | x4[K:treble] x4 | %4
[M:11/16][K:bass] x7/2[K:treble] x2 |[M:5/16] x5/2 |[M:4/4][K:bass] x8 | %7
 (3C,F,G, (3A,F,[K:treble] z [F,A,F]2 z2 | x8 | x8 |[M:6/8] x6 | x6 | x6 | x6 | x6 | %15
 x5[K:treble] x | x6 | x6 | x6 | x6 | x6 | x6 | x6 | [D,D]D,D,[K:treble] [B,D][B,D][G,DG] | %24
 x3[K:bass] x3 |[M:7/16] x7/2 |] %26

